!! 00000] TT[WS
!!!OTL: FunÅ fangshao
!!!ARE: Asia, China, Shanxi Xiyang
!! Ethnic Group: Han
!! WI, 285 (2)
!!!SCT: J0344
!!!YEM: Copyright 1995, estate of Helmut Schaffrath.
**kern
*ICvox
*Ivox
*M2/4
*k[f#c#g#]
*A:
{8b
8b
8ee
8ff#
=1
8ee
16dd
16cc#
8.b
16cc#
=2
8ee
16ee
16g#
8b
16cc#
16b
=3
8a
16g#
16f#
4e}
=4
{8.b
16f#
8g#
8cc#
=5
8b
16f#
16a
8.e
16f#
=6
8a
16a
16g#
8b
16f#
16a
=7
2e}
==
!!!AGN: Xiaodiao. Xinminge, Xuanchuan
!! Neue Text. Politische Liede
!!!ONB: ESAC (Essen Associative Code) Database: CHINA
!!!AMT: simple duple
!!!AIN: vox
!!!EED: Helmut Schaffrath
!!!EEV: 1.0
*-
